X: 39436
T: Tarantella
R: jig
M: 6/8
K: Aminor
|:a2 a|e2 e a2 a|e2 e ede|f2 f fgf|e2 e efe|
d2 d ded|c2 c cdc|B2 B BcB|A3:|
|:A2 B|cBc dcB|c2 c ABc|B2 B dcB|A2 A A2 B|
cBc dcB|c2 c ABc|B2 B dcB|A3:|
|:a2 a|e2 e a2 a|e2 e ede|f2 f fgf|e2 e efe|
d2 d ded|c2 c cdc|B2 B BcB|A3:|
K: CMaj
|:cGc|ece g2 g|gag f2 f|fgf e3|e2 d cGc|
ece g3|g2 a bag|fed c3-|c3:|

